icons/ppe_santizer_alt_fill.svg

<svg width="48" height="48" viewBox="0 0 48 48" fill="none" xmlns="http://www.w3.org/2000/svg">
<path fill-rule="evenodd" clip-rule="evenodd" d="M14 6C12.8954 6 12 6.89543 12 8V15.1C9.71776 15.5633 8 17.581 8 20V37C8 39.7614 10.2386 42 13 42H25C27.0503 42 28.8124 40.7659 29.584 39H27.2361C26.6868 39.6137 25.8885 40 25 40H13C11.3431 40 10 38.6569 10 37V36H20C20.5523 36 21 35.5523 21 35C21 34.4477 20.5523 34 20 34H10V25H18C18.5523 25 19 24.5523 19 24C19 23.4477 18.5523 23 18 23H10V20C10 18.3431 11.3431 17 13 17H25C25.8885 17 26.6868 17.3863 27.2361 18H29.584C28.9413 16.5291 27.6113 15.4271 26 15.1V8C26 6.89543 25.1046 6 24 6H14ZM24 8H14V15H24V8Z" fill="black"/>
<path fill-rule="evenodd" clip-rule="evenodd" d="M37.3397 33.6892C39.0674 31.5067 40.006 28.7934 40 25.9984V22.3997C40 21.7632 39.7498 21.1529 39.3045 20.7028C38.8592 20.2528 38.2553 20 37.6256 20H23.3744C22.7447 20 22.1408 20.2528 21.6955 20.7028C21.2502 21.1529 21 21.7632 21 22.3997V25.9984C20.9939 28.7932 21.9323 31.5063 23.6597 33.6888C25.3871 35.8713 27.8 37.3922 30.4992 38C33.1987 37.3926 35.612 35.8717 37.3397 33.6892ZM32 25C32 24.4477 31.5523 24 31 24C30.4477 24 30 24.4477 30 25V27H28C27.4477 27 27 27.4477 27 28C27 28.5523 27.4477 29 28 29H30V31C30 31.5523 30.4477 32 31 32C31.5523 32 32 31.5523 32 31V29H34C34.5523 29 35 28.5523 35 28C35 27.4477 34.5523 27 34 27H32V25Z" fill="black"/>
</svg>

<svg
  xmlns="http://www.w3.org/2000/svg"
  width="24"
  height="24"
  viewBox="0 0 24 24"
  fill="none"
  stroke="currentColor"
  stroke-width="2"
  stroke-linecap="round"
  stroke-linejoin="round"
>
  <path
    fill-rule="evenodd"
    d="M14 6a2 2 0 0 0-2 2v7.1A5 5 0 0 0 8 20v17a5 5 0 0 0 5 5h12a5 5 0 0 0 4.584-3h-2.348c-.55.614-1.348 1-2.236 1H13a3 3 0 0 1-3-3v-1h10a1 1 0 1 0 0-2H10v-9h8a1 1 0 1 0 0-2h-8v-3a3 3 0 0 1 3-3h12c.889 0 1.687.386 2.236 1h2.348A5.01 5.01 0 0 0 26 15.1V8a2 2 0 0 0-2-2zm10 2H14v7h10z"
    clip-rule="evenodd"
  />
  <path
    fill-rule="evenodd"
    d="M37.34 33.69A12.35 12.35 0 0 0 40 25.997V22.4c0-.637-.25-1.247-.696-1.697A2.36 2.36 0 0 0 37.627 20H23.374c-.63 0-1.233.253-1.678.703A2.41 2.41 0 0 0 21 22.4v3.598a12.35 12.35 0 0 0 2.66 7.69A12.12 12.12 0 0 0 30.5 38a12.12 12.12 0 0 0 6.84-4.31M32 25a1 1 0 1 0-2 0v2h-2a1 1 0 1 0 0 2h2v2a1 1 0 1 0 2 0v-2h2a1 1 0 1 0 0-2h-2z"
    clip-rule="evenodd"
  />
</svg>
